X: 1668
T: Molly In The Garden   #1
R: hornpipe, reel
%S: s:4 b:16(4+4+4+4)
M: 2/4
L: 1/16
B: O'Neill's 1850 #1668
O: J.O'Neill
K: G
(dc) !segno!\
| BcAB GAFA | EDGE D2GA | B2GB c2Bc | dcBc A2dc |
| BcAB GAFG | EDGE D2(AB) | cedc BA (3GAB | A2G2 HG2 :|
|: (3AGF \
| E2e2 e2 (3GFE | D2d2 d2 (3FED | C2c2 c2(AB) | cBAB cB (3AGF |
| E2e2 e2 (3GFE | D2d2 d2(ef) | gfef gfec | dcde dcB!segno!A :|
